dist/svgs/core-ui-icons/free/cil-basket.svg

<svg xmlns="http://www.w3.org/2000/svg" viewBox="0 0 512 512"><path d="M120 304h32v128h-32zm80 0h32v128h-32zm80 0h32v128h-32zm80 0h32v128h-32z"/><path d="M473.681 168L394.062 16h-36.124l79.619 152H74.443l79.619-152h-36.124L38.319 168H16v111.468L58.856 496h394.261L496 281.584V168zM464 278.416L426.883 464H85.144L48 276.332V272h416zM464 240H48v-40h416z"/></svg>

<svg xmlns="http://www.w3.org/2000/svg" viewBox="0 0 512 512">
  <rect width="32" height="128" x="120" y="304" fill="var(--ci-primary-color, currentColor)" class="ci-primary"/>
  <rect width="32" height="128" x="200" y="304" fill="var(--ci-primary-color, currentColor)" class="ci-primary"/>
  <rect width="32" height="128" x="280" y="304" fill="var(--ci-primary-color, currentColor)" class="ci-primary"/>
  <rect width="32" height="128" x="360" y="304" fill="var(--ci-primary-color, currentColor)" class="ci-primary"/>
  <path fill="var(--ci-primary-color, currentColor)" d="M473.681,168,394.062,16H357.938l79.619,152H74.443L154.062,16H117.938L38.319,168H16V279.468L58.856,496H453.117L496,281.584V168ZM464,278.416,426.883,464H85.144L48,276.332V272H464ZM464,240H48V200H464Z" class="ci-primary"/>
</svg>
